ui/static/images/pixels-left.svg

<svg width="150" height="103" viewBox="0 0 150 103" xmlns="http://www.w3.org/2000/svg"><g fill="none" fill-rule="evenodd"><g fill="#352134"><g><g><path d="M90 88h15v15H90zM90 74h15v15H90zM75 88h15v15H75zM60 88h15v15H60zM75 74h15v15H75zM60 74h15v15H60zM45 60h15v15H45zM30 74h15v15H30zM15 88h15v15H15zM30 88h15v15H30zM60 45h15v15H60zM105 15h15v15h-15zM120 0h15v15h-15zM90 15h15v15H90zM90 0h15v15H90zM90 30h15v15H90zM75 30h15v15H75zM120 15h15v15h-15zM135 15h15v15h-15zM0 88h15v15H0zM30 45h15v15H30zM45 74h15v15H45zM75 60h15v15H75zM90 60h15v15H90zM90 45h15v15H90zM45 88h15v15H45z"/></g></g></g></g></svg>

<svg width="150" height="103" viewBox="0 0 150 103" xmlns="http://www.w3.org/2000/svg"><g fill="none" fill-rule="evenodd"><g fill="#352134"><g><g><path id="Rectangle-12" d="M90 88H105V103H90z" transform=""/><path id="Rectangle-12" d="M90 74H105V89H90z"/><path id="Rectangle-12" d="M75 88H90V103H75z"/><path id="Rectangle-12" d="M60 88H75V103H60z"/><path id="Rectangle-12" d="M75 74H90V89H75z"/><path id="Rectangle-12" d="M60 74H75V89H60z"/><path id="Rectangle-12" d="M45 60H60V75H45z"/><path id="Rectangle-12" d="M30 74H45V89H30z"/><path id="Rectangle-12" d="M15 88H30V103H15z"/><path id="Rectangle-12" d="M30 88H45V103H30z"/><path id="Rectangle-12" d="M60 45H75V60H60z"/><path id="Rectangle-12" d="M105 15H120V30H105z"/><path id="Rectangle-12" d="M120 0H135V15H120z"/><path id="Rectangle-12" d="M90 15H105V30H90z"/><path id="Rectangle-12" d="M90 0H105V15H90z"/><path id="Rectangle-12" d="M90 30H105V45H90z"/><path id="Rectangle-12" d="M75 30H90V45H75z"/><path id="Rectangle-12" d="M120 15H135V30H120z"/><path id="Rectangle-12" d="M135 15H150V30H135z"/><path id="Rectangle-12" d="M0 88H15V103H0z"/><path id="Rectangle-12" d="M30 45H45V60H30z"/><path id="Rectangle-12" d="M45 74H60V89H45z"/><path id="Rectangle-12" d="M75 60H90V75H75z"/><path id="Rectangle-12" d="M90 60H105V75H90z"/><path id="Rectangle-12" d="M90 45H105V60H90z"/><path d="M45 88H60V103H45z"/></g></g></g></g></svg>
